img/work/logo-yippie-blue.svg

<?xml version="1.0" encoding="UTF-8" standalone="no"?>
<svg width="101px" height="49px" viewBox="0 0 101 49" version="1.1" xmlns="http://www.w3.org/2000/svg" xmlns:xlink="http://www.w3.org/1999/xlink">
    <!-- Generator: Sketch 39.1 (31720) - http://www.bohemiancoding.com/sketch -->
    <title>logo-blue</title>
    <desc>Created with Sketch.</desc>
    <defs></defs>
    <g id="Content-real" stroke="none" stroke-width="1" fill="none" fill-rule="evenodd">
        <g id="Work" transform="translate(-241.000000, -1225.000000)" fill="#FFFFFF">
            <g id="Group-2" transform="translate(199.000000, 1166.000000)">
                <g id="logo-blue" transform="translate(42.000000, 59.000000)">
                    <path d="M80.3148124,19.445399 L74.5541514,20.2004716 C74.3988827,18.0809277 75.8501386,16.9348586 77.4170384,16.9059844 C78.986307,16.881235 80.2829403,18.0171004 80.3148124,19.445399 L80.3148124,19.445399 Z M42.0614392,18.9532341 C41.8172303,18.5943684 41.5209062,18.2500483 41.1334883,17.9749831 C40.7516695,17.7033914 40.2389168,17.5156002 39.7369318,17.4910679 C38.6237783,17.4550294 37.7132708,18.1734121 37.3409275,18.9721218 C36.9345586,19.7777786 36.8768443,20.6294605 36.8768443,21.4433672 C36.9031173,22.26205 37.0013177,23.1091728 37.4328827,23.9076653 C37.8293454,24.6987765 38.7669872,25.3956664 39.8885394,25.3867653 C40.435533,25.3769958 40.9758507,25.2072239 41.39471,24.9215207 C41.818307,24.6364689 42.1452111,24.270656 42.38942,23.8790082 C42.8881748,23.0959297 43.0298763,22.1812889 42.9301684,21.3417645 C42.8326141,20.4840038 42.5418891,19.6774786 42.0614392,18.9532341 L42.0614392,18.9532341 Z M57.1476951,19.1065065 C56.9030554,18.7480749 56.6099616,18.4050575 56.222113,18.1278212 C55.8396482,17.857098 55.3268955,17.6673529 54.8253412,17.6465113 C53.7145565,17.6072162 52.8010341,18.3288555 52.4284755,19.1258283 C52.0208145,19.9297484 51.9656844,20.78295 51.9656844,21.5970737 C51.9893731,22.4140197 52.0901578,23.262011 52.5206461,24.0598522 C52.9199083,24.8509633 53.8584115,25.5478532 54.9793177,25.5398206 C55.5232964,25.5313537 56.0640448,25.3609304 56.4846269,25.0743589 C56.9073625,24.789307 57.2338358,24.4263164 57.4771834,24.0329318 C57.9767996,23.248985 58.1174243,22.3360809 58.0155629,21.4954711 C57.9177932,20.6357564 57.632452,19.8296654 57.1476951,19.1065065 L57.1476951,19.1065065 Z M15.5036077,48.3884738 L12.3986652,37.6494222 L2.4780533,37.712164 L0.0626673774,7.48603032 L99.8347313,0.0911818552 L100.838917,37.0888709 L29.4049979,37.5415237 L15.5036077,48.3884738 L15.5036077,48.3884738 Z M29.6853859,28.5915904 L30.222258,14.1227668 L26.3375267,14.1596737 L26.3276205,28.547085 L29.6853859,28.5915904 L29.6853859,28.5915904 Z M91.8520704,26.0751883 C91.8240746,24.7317756 90.5950618,23.6525732 89.1192559,23.6797107 C87.6359126,23.704243 86.4564307,24.8212207 86.4839957,26.170278 C86.5100533,27.5182497 87.7410043,28.5948469 89.2202559,28.5687949 C90.6988614,28.5418746 91.8798507,27.4233772 91.8520704,26.0751883 L91.8520704,26.0751883 Z M86.1338337,8.96426187 L87.2351429,22.4724195 L90.2655736,22.2605303 L91.5402409,8.23003083 L86.1338337,8.96426187 L86.1338337,8.96426187 Z M71.1470704,24.8149248 C71.6464712,26.0925563 72.6351514,27.1958567 73.8538273,27.8386888 C74.5507058,28.2212184 75.3571983,28.4711001 76.3165906,28.6076558 L76.5489552,28.6371813 C77.0558934,28.6955811 77.5089936,28.7209818 77.9304371,28.7129491 L77.9758763,28.7120807 C78.3962431,28.7120807 78.8579574,28.6801671 79.3188102,28.6380497 C79.6724179,28.6074387 80.0227953,28.5674923 80.368435,28.5060531 C81.1245352,28.3766617 81.8836503,28.1424112 82.7127548,27.7833284 L82.9451194,27.6593645 L82.928968,24.6303901 L82.2458721,24.9128367 C81.4075075,25.2534661 80.5803412,25.4892363 79.7874158,25.6092924 C78.8538657,25.74346 77.9883667,25.7597425 77.2736141,25.6596596 C76.5153603,25.545248 75.9166823,25.1698827 75.4864094,24.6327782 C75.1767335,24.213993 75.085855,23.667336 75.0139275,23.1838551 L83.9887143,21.7562078 C83.9841919,21.5378055 83.969548,20.1147173 83.9452132,19.6744392 C83.9014968,18.9621352 83.7483817,18.2765345 83.4929744,17.630663 C83.1992345,16.909458 82.7995416,16.2976711 82.275806,15.7625205 C81.7525011,15.2308434 81.0676823,14.776888 80.3499147,14.4866258 C79.0373454,13.9571197 77.4977953,13.8296822 75.8525075,14.1090895 C74.3118806,14.3663526 72.8713923,15.1811276 72.0102004,16.2770467 C71.1815267,17.2770077 70.6939701,18.5817766 70.5929701,20.0532781 C70.4990768,21.5262992 70.6954776,23.7088021 71.1470704,24.8149248 L71.1470704,24.8149248 Z M63.9254627,10.2725044 C63.94829,11.3779758 64.9548443,12.2589662 66.1705053,12.238776 C67.3831514,12.2179344 68.3496503,11.3004713 68.3272537,10.1984734 C68.3048571,9.09300196 67.3002409,8.20918927 66.0873795,8.23089923 C64.8710725,8.2497869 63.9015586,9.16790135 63.9254627,10.2725044 L63.9254627,10.2725044 Z M63.4002196,13.9634156 L64.3380768,28.401194 L67.9820448,28.2557372 L68.2038571,13.9631985 L63.4002196,13.9634156 L63.4002196,13.9634156 Z M47.8369595,13.9634156 L48.211887,33.8226066 L51.8991407,34.0229896 L52.2691151,27.4409622 C-3.42409382,-5.86169069 53.0532111,27.9500609 53.4862836,28.1111489 C54.1792857,28.3757934 54.9711343,28.5034479 55.8633369,28.4869484 L55.8967164,28.4869484 C56.2434328,28.4804354 56.6127612,28.4422258 57.1003177,28.353215 L57.212516,28.3299853 C57.9027186,28.1825747 58.5033348,27.9392059 58.9949829,27.6109513 C59.845838,27.0434528 60.5252729,26.2221648 60.9587761,25.2350126 C61.3153987,24.4399937 61.5197676,23.5331684 61.6028934,22.3719024 C61.6679296,21.2983446 61.61,20.3502704 61.4280277,19.4697142 C61.1995394,18.3733609 60.7658209,17.434622 60.1380704,16.6821546 C59.422887,15.8015984 58.3922132,15.1735291 57.2390043,14.9134437 C56.0851493,14.6590029 54.9026525,14.6761538 53.7989744,14.9592518 C53.1813454,15.1127412 52.5949424,15.3906288 52.0716375,15.7757636 C51.9941109,15.4772515 51.8825586,13.9951122 51.8825586,13.9951122 L47.8369595,13.9634156 L47.8369595,13.9634156 Z M32.623,33.9858655 L36.4788742,33.9858655 L36.8143923,27.2405793 C36.8139616,27.2403622 37.6402665,27.7915782 38.1021962,27.963304 C38.7958443,28.2283827 39.584032,28.3519124 40.4760192,28.3386693 L40.5085373,28.3386693 C40.8546077,28.3332418 41.2256588,28.2924271 41.7132154,28.2021136 L41.8243369,28.1799695 C42.5162623,28.0340785 43.1162324,27.7915782 43.6098188,27.4609354 C44.4593817,26.8956079 45.1377399,26.0732344 45.5736119,25.0862994 C45.9282964,24.2880239 46.1333113,23.3779422 46.218806,22.2227549 C46.2795352,21.1507168 46.222467,20.2026426 46.0404947,19.3181786 C45.8089915,18.2194373 45.376565,17.2822181 44.7535522,16.5319217 C44.0347079,15.6520168 43.0061876,15.0239474 41.8501791,14.7629937 C40.6963241,14.5081187 39.5159808,14.5267892 38.411226,14.8081504 C37.7961812,14.9622911 37.2074094,15.2406129 36.6849659,15.6268332 C36.6067932,15.325716 36.4409723,13.9636327 36.4409723,13.9636327 L33.0039574,14.0046646 L32.623,33.9858655 L32.623,33.9858655 Z M25.9785352,10.4618153 C26.0013625,11.6712775 27.1037484,12.635417 28.428162,12.6141413 C29.7575288,12.5898261 30.8161983,11.5870428 30.7912175,10.3773635 C30.7651599,9.17115784 29.6651429,8.20636697 28.3366375,8.23003083 C27.0109318,8.2530434 25.9522623,9.25343861 25.9785352,10.4618153 L25.9785352,10.4618153 Z M16.8224222,32.2165034 C17.5662473,31.2545348 18.5895991,28.6439114 18.5895991,28.6439114 L24.7396162,14.1225497 L19.3151194,14.1242865 C19.3151194,14.1246783 16.9062432,21.4091608 16.6186994,22.3530147 C15.5733817,20.2619108 12.7023113,14.480547 12.7023113,14.480547 L7.84136369,14.7217173 C7.84136369,14.7217173 14.317906,26.8974744 14.4122047,27.1272532 C13.7448294,31.8854264 9.30427505,30.1768521 9.30427505,30.1768521 L9.34669936,33.9641556 C9.34669936,33.9641556 14.0693646,35.7778061 16.8224222,32.2165034 Z" id="Shape"></path>
                </g>
            </g>
        </g>
    </g>
</svg>

<svg width="101" height="49" viewBox="0 0 101 49" xmlns="http://www.w3.org/2000/svg"><title>logo-blue</title><path d="M80.315 19.445l-5.76.755c-.156-2.12 1.295-3.265 2.862-3.294 1.57-.025 2.866 1.111 2.898 2.54zm-38.254-.492a3.78 3.78 0 0 0-.928-.978 2.72 2.72 0 0 0-1.396-.484c-1.113-.036-2.024.682-2.396 1.481-.406.806-.464 1.657-.464 2.471.026.819.124 1.666.556 2.465.396.79 1.334 1.488 2.456 1.479a2.803 2.803 0 0 0 1.506-.465c.423-.286.75-.651.994-1.043.5-.783.64-1.698.541-2.537a5.387 5.387 0 0 0-.869-2.389zm15.087.154a3.812 3.812 0 0 0-.926-.98 2.696 2.696 0 0 0-1.397-.48c-1.11-.04-2.024.682-2.397 1.479-.407.804-.462 1.657-.462 2.471.023.817.124 1.665.555 2.463a2.79 2.79 0 0 0 2.458 1.48 2.795 2.795 0 0 0 1.506-.466c.422-.285.749-.648.992-1.041.5-.784.64-1.697.539-2.538a5.325 5.325 0 0 0-.868-2.388zM15.504 48.388L12.399 37.65l-9.92.063L.062 7.486 99.835.091l1.004 36.998-71.434.453-13.901 10.846zm14.181-19.796l.537-14.47-3.884.038-.01 14.387 3.357.045zm62.167-2.517c-.028-1.343-1.257-2.422-2.733-2.395-1.483.024-2.663 1.141-2.635 2.49.026 1.348 1.257 2.425 2.736 2.399 1.479-.027 2.66-1.146 2.632-2.494zm-5.718-17.11l1.101 13.507 3.03-.211L91.54 8.23l-5.406.734zm-14.987 15.85a5.903 5.903 0 0 0 2.707 3.024c.697.382 1.503.632 2.463.769l.232.03c.507.058.96.083 1.381.075h.046c.42 0 .882-.033 1.343-.075.353-.03.704-.07 1.05-.132.756-.13 1.515-.364 2.344-.723l.232-.124-.016-3.029-.683.283c-.838.34-1.666.576-2.459.696-.933.134-1.799.15-2.513.05a2.77 2.77 0 0 1-1.788-1.026c-.31-.419-.4-.966-.472-1.45l8.975-1.427c-.005-.218-.02-1.641-.044-2.082a6.648 6.648 0 0 0-.452-2.043 5.686 5.686 0 0 0-1.217-1.868 5.821 5.821 0 0 0-1.926-1.276c-1.313-.53-2.852-.657-4.497-.378-1.541.257-2.982 1.072-3.843 2.168-.828 1-1.316 2.305-1.417 3.776-.094 1.473.102 3.656.554 4.762zm-7.222-14.542c.023 1.105 1.03 1.986 2.246 1.966 1.212-.021 2.179-.939 2.156-2.04-.022-1.106-1.027-1.99-2.24-1.968-1.216.019-2.185.937-2.162 2.042zm-.525 3.69l.938 14.438 3.644-.145.222-14.293H63.4zm-15.563 0l.375 19.86 3.687.2.37-6.582c-55.693-33.303.784.51 1.217.67.693.265 1.485.392 2.377.376h.034a7.308 7.308 0 0 0 1.203-.134l.113-.023c.69-.147 1.29-.39 1.782-.719a5.486 5.486 0 0 0 1.964-2.376c.356-.795.56-1.702.644-2.863.065-1.074.007-2.022-.175-2.902-.228-1.097-.662-2.035-1.29-2.788-.715-.88-1.746-1.508-2.899-1.769a7.431 7.431 0 0 0-3.44.046 4.919 4.919 0 0 0-1.727.817c-.078-.299-.19-1.78-.19-1.78l-4.045-.033zM32.623 33.986h3.856l.335-6.745s.826.55 1.288.722c.694.265 1.482.389 2.374.376h.033a7.113 7.113 0 0 0 1.204-.137l.111-.022c.692-.146 1.292-.388 1.786-.72.85-.564 1.528-1.387 1.964-2.374.354-.798.56-1.708.645-2.863.06-1.072.003-2.02-.179-2.905-.231-1.099-.663-2.036-1.286-2.786a5.237 5.237 0 0 0-2.904-1.769 7.445 7.445 0 0 0-3.439.045 4.926 4.926 0 0 0-1.726.819c-.078-.301-.244-1.663-.244-1.663l-3.437.04-.381 19.982zm-6.644-23.524c.022 1.21 1.125 2.173 2.45 2.152 1.329-.024 2.387-1.027 2.362-2.237-.026-1.206-1.126-2.17-2.454-2.147-1.326.023-2.385 1.023-2.358 2.232zm-9.157 21.755c.744-.962 1.768-3.573 1.768-3.573l6.15-14.521-5.425.001s-2.409 7.285-2.696 8.229c-1.046-2.091-3.917-7.872-3.917-7.872l-4.86.24s6.476 12.176 6.57 12.406c-.667 4.758-5.108 3.05-5.108 3.05l.043 3.787s4.722 1.814 7.475-1.747z" fill="#FFF" fill-rule="evenodd"/></svg>
